www/assets/icons/holiday_village.svg

<svg xmlns="http://www.w3.org/2000/svg" width="24" height="24" viewBox="0 0 24 24" fill='currentColor'><path d="M18 20V8.35L13.65 4h-2.83L16 9.18V20zm4 0V6.69L19.31 4h-2.83L20 7.52V20zM8 4l-6 6v10h5v-5h2v5h5V10zm1 9H7v-2h2z"/></svg>

<svg width="24" height="24" viewBox="0 0 24 24" xmlns="http://www.w3.org/2000/svg" fill='currentColor'><path d="M18 20V8.35L13.65 4H10.82L16 9.18V20H18ZM22 20V6.69L19.31 4H16.48L20 7.52V20H22ZM8 4L2 10V20H7V15H9V20H14V10L8 4ZM9 13H7V11H9V13Z"/></svg>
